X: 39689
T: Tenth Street
R: polka
M: 2/4
K: Gmajor
|:"G"DG "C"EG|"D"FA A2|"G"B A/G/ "C"EG|"D"ED D2|
"G"DG "C"EG|"D"FA A2|"G"B A/G/ "C"E"D"F|1 "G"G4:|2 "G"G3 G/A/||
|:"G"Bd "C"ge|"G"dB G G/A/|Bd "C"ge|"G"BG "D"A "G"G/A/|
"G"Bd "C"ge|"G"dB G G/A/|B A/G/ "C"E"D"F|1 "G"G3 G/A/:|2 "G"G4||

